Hatter-kde-dark/actions/32/system-log-out.svg

<svg xmlns="http://www.w3.org/2000/svg" viewBox="0 0 32 32">
  <defs
     id="defs3051">
    <style
       type="text/css"
       id="current-color-scheme">
      .ColorScheme-Text {
        color:#dedede;
      }
      </style>
  </defs>
  <path
     style="fill:currentColor;fill-opacity:1;stroke:none" 
     d="M 16,3.9999997 A 12,12 0 0 0 4,16 12,12 0 0 0 16,28 12,12 0 0 0 28,16 12,12 0 0 0 16,3.9999997 Z m 0,1 A 11,11 0 0 1 27,16 11,11 0 0 1 16,27 11,11 0 0 1 5,16 11,11 0 0 1 16,4.9999997 Z m 3.269531,3 L 11,16 19.269531,24 20,23.292969 12.460938,16 20,8.7070309 19.269531,7.9999997 Z"
     class="ColorScheme-Text"
     />
</svg>

<?xml version="1.0" encoding="UTF-8"?>
<svg viewBox="0 0 32 32" xmlns="http://www.w3.org/2000/svg">
 <defs id="defs3051">
  <style id="current-color-scheme" type="text/css">.ColorScheme-Text {
        color:#dedede;
      }</style>
 </defs>
 <path class="ColorScheme-Text" d="m16 4a12 12 0 0 0-12 12 12 12 0 0 0 12 12 12 12 0 0 0 12-12 12 12 0 0 0-12-12zm0 1a11 11 0 0 1 11 11 11 11 0 0 1-11 11 11 11 0 0 1-11-11 11 11 0 0 1 11-11zm3.2695 3-8.2695 8 8.2695 8 0.73047-0.70703-7.5391-7.293 7.5391-7.293-0.73047-0.70703z" fill="currentColor"/>
</svg>
